!!!!SEGMENT: Bau2002-Exaltabo_te_Deus_meus.krn
!!!id: Bau2002
!!!AGN: Motet
!!!voices: 4
!!!COM: Noel Bauldeweyn
!!!OTL: Exaltabo te Deus meus
**kern	**kern	**kern	**kern
*part4	*part3	*part2	*part1
*staff4	*staff3	*staff2	*staff1
*I"Bassus	*I"Tenor	*I"Altus	*I"Superius
*I'B	*I'T	*I'A	*I'S
*clefF4	*clefGv2	*clefGv2	*clefG2
*k[]	*k[]	*k[]	*k[]
*C:	*C:	*C:	*C:
*M2/1	*M2/1	*M2/1	*M2/1
*met(C|)	*met(C|)	*met(C|)	*met(C|)
!!section: Prima pars: Exaltabo te Deus meus
!!!OMD: Prima pars: Exaltabo te Deus meus
0r	0r	1r	0g
.	.	[1c	.
=1	=1	=1	=1
0r	0r	1c]	1a
.	.	1d	1b
=2	=2	=2	=2
0r	0r	1e	1.cc
.	.	[1f	.
.	.	.	2a
=3	=3	=3	=3
0r	0r	2f]	1a
.	.	2d	.
.	.	1d	1dd
=4	=4	=4	=4
0r	0r	1g	2dd
.	.	.	2dd
.	.	2g	[1b
.	.	2g	.
=5	=5	=5	=5
0r	0r	1e	2b]
.	.	.	2g
.	.	2d	1a
.	.	2c	.
=6	=6	=6	=6
1r	0G	1d	0g
(1C	.	[1c	.
=7	=7	=7	=7
1C)	1A	1c]	0r
1D	1B	1r	.
=8	=8	=8	=8
1E	1.c	0r	0r
[1F	.	.	.
.	2A	.	.
=9	=9	=9	=9
2F]	1A	2r	2r
2D	.	2f	2dd
1D	1d	2f	2dd
.	.	2f	2dd
=10	=10	=10	=10
1G	2d	1.d	2.b
.	2d	.	.
.	.	.	4a
2G	[1B	.	2b
2G	.	[2e	[2g
=11	=11	=11	=11
1E	2B]	2e]	2g]
.	1G	2c	4f
.	.	.	4e
1D	.	1d	1f
.	2A	.	.
=12	=12	=12	=12
1E	0G	1B	0g
1C	.	2r	.
.	.	2e	.
=13	=13	=13	=13
0r	0r	2d	2r
.	.	2G	2b
.	.	1d	2a
.	.	.	2d
=14	=14	=14	=14
0r	0r	1c	1a
.	.	2r	1g
.	.	2e	.
=15	=15	=15	=15
0r	0r	2d	2r
.	.	2G	2b
.	.	1d	2a
.	.	.	2d
=16	=16	=16	=16
0r	0r	2c	1a
.	.	2A	.
.	.	2.c	2g
.	.	.	2e
.	.	4c	.
=17	=17	=17	=17
0r	0r	1c	2.g
.	.	.	4g
.	.	2r	1g
.	.	2c	.
=18	=18	=18	=18
0r	0r	2c	2r
.	.	2.c	2g
.	.	.	2g
.	.	4B	.
.	.	2G	[2g
=19	=19	=19	=19
0r	1r	2.A	4g]
.	.	.	4f
.	.	.	2d
.	.	4B	.
.	1A	1c	2.e
.	.	.	4f
=20	=20	=20	=20
1E	2.G	2B	1g
.	.	2c	.
.	4G	.	.
2.D	2A	2d	1r
.	2B	2d	.
4D	.	.	.
=21	=21	=21	=21
2E	1G	1B	0r
2E	.	.	.
2C	2r	1c	.
2C	2G	.	.
=22	=22	=22	=22
2F	2A	1r	1r
2E	2c	.	.
2F	2A	2r	2r
2G	2B	2d	2g
=23	=23	=23	=23
1C	1c	2e	2g
.	.	2e	2g
1r	1r	2d	2f
.	.	2B	2d
=24	=24	=24	=24
2r	2r	1c	1e
2C	2G	.	.
2F	2A	1r	1r
2E	2c	.	.
=25	=25	=25	=25
2F	2A	2r	2r
2G	2B	2d	2g
1C	1c	2e	2g
.	.	2e	2g
=26	=26	=26	=26
1r	1r	2d	2f
.	.	2B	2d
1C	1G	[1c	[1e
=27	=27	=27	=27
1C	1G	1c]	1e]
1F	1A	1r	1r
=28	=28	=28	=28
0E	0B	1e	1g
.	.	1e	1g
=29	=29	=29	=29
2r	1r	1f	1a
2D	.	.	.
1E	2r	1e	1g
.	2G	.	.
=30	=30	=30	=30
1F	1A	2r	2r
.	.	2d	2f
1E	1B	1e	1g
=31	=31	=31	=31
2r	1A	1f	1a
2D	.	.	.
2.E	2r	[1e	1g
.	2B	.	.
4E	.	.	.
=32	=32	=32	=32
1C	2.c	1e]	2r
.	.	.	2e
.	4c	.	.
1r	[1G	2r	2.g
.	.	2B	.
.	.	.	4g
=33	=33	=33	=33
1.C	1G]	2.c	1g
.	.	4c	.
.	1r	1G	2r
2C	.	.	[2g
=34	=34	=34	=34
2C	1.G	1r	2g]
2C	.	.	2g
1GG	.	[1d	2.g
.	2G	.	.
.	.	.	4g
=35	=35	=35	=35
2BB-X	2G	2d]	2d
2BB-i	2G	2d	2g
2.AA	1c	2.e	4a
.	.	.	4b
.	.	.	4cc
4FF	.	4f	4a
=36	=36	=36	=36
1GG	1B	1d	2b
.	.	.	1g
2.D	2.A	2.d	.
.	.	.	2f#i
4D	4A	4d	.
=37	=37	=37	=37
1GG	[0G	0B	[0g
1r	.	.	.
=38	=38	=38	=38
1.C	1G]	1.e	0g]
.	1r	.	.
2BB	.	2d	.
=39	=39	=39	=39
2C	1.c	2e	1r
2AA	.	2c	.
1GG	.	1d	[1g
.	2B	.	.
=40	=40	=40	=40
1r	2c	2.e	2g]
.	2A	.	2f
.	.	4c	.
1GG	1G	2d	2g
.	.	[2c	2e
=41	=41	=41	=41
1GG	2r	4c]	1d
.	.	8BL	.
.	.	8AJ	.
.	1G	2B	.
[1C	.	1c	1r
.	2G	.	.
=42	=42	=42	=42
2C]	2.G	0r	0r
2BB	.	.	.
.	4d	.	.
2C	2c	.	.
2D	2A	.	.
=43	=43	=43	=43
1GG	1B	2r	2r
.	.	1G	1d
1r	1r	.	.
.	.	2G	2d
=44	=44	=44	=44
1r	1r	2c	2e
.	.	2B	2d
2r	2r	2c	2e
2D	2d	2A	2f
=45	=45	=45	=45
2E	2B	1G	1g
2C	2c	.	.
2D	2A	1r	1r
2E	2G	.	.
=46	=46	=46	=46
1F	2A	1r	0r
.	1c	.	.
1D	.	2r	.
.	2B	2d	.
=47	=47	=47	=47
1C	1c	2e	2g
.	.	2c	2g
1r	1r	2d	2f
.	.	2e	2g
=48	=48	=48	=48
0D	1r	1f	2a
.	.	.	2d
.	[1A	1d	1f
=49	=49	=49	=49
1AA	1A]	1c	1e
1C	1E	1c	2r
.	.	.	[2g
=50	=50	=50	=50
1GG	1G	1B	2g]
.	.	.	1d
1r	1D	1d	.
.	.	.	[2f
=51	=51	=51	=51
1D	2r	2A	4f]
.	.	.	4e
.	1A	2.f	2d
1AA	.	.	2c
.	.	4e	.
.	[2E	[2e	[2cc
=52	=52	=52	=52
0C	2E]	4e]	4cc]
.	.	4d	4b
.	2F	4c	2a
.	.	4B	.
.	[1G	1c	2g
.	.	.	[2cc
=53	=53	=53	=53
0GG	0G]	0d	2cc]
.	.	.	4b
.	.	.	4a
.	.	.	1b
=54	=54	=54	=54
0r	[0C	[0c	0e
=55	=55	=55	=55
0r	0C]	1c]	1r
.	.	2r	2.g
.	.	[2c	.
.	.	.	4g
=56	=56	=56	=56
0r	0r	4c]	2a
.	.	4c	.
.	.	2d	2b
.	.	2e	1g
.	.	[2c	.
=57	=57	=57	=57
0r	0r	2c]	1a
.	.	2d	.
.	.	2.B	2.g
.	.	4c	4e
=58	=58	=58	=58
0r	0r	2A	2f
.	.	2B	2g
.	.	2c	2e
.	.	2A	2a
=59	=59	=59	=59
0r	0r	2B	2g
.	.	2c	2e
.	.	2.d	2.f
.	.	4d	4f
=60	=60	=60	=60
0r	1r	2c	2e
.	.	2.d	2.f
.	2r	.	.
.	.	4c	4e
.	[2G	4B	4d
.	.	4A	4c
=61	=61	=61	=61
1r	2G]	4B	4d
.	.	2c	4c
.	2G	.	2d
.	.	4B	.
2r	2.A	1c	1c
[2C	.	.	.
.	4A	.	.
=62	=62	=62	=62
2C]	2G	0r	0r
2C	2E	.	.
2.D	1F	.	.
4D	.	.	.
=63	=63	=63	=63
2C	1G	0r	0r
2BB	.	.	.
2C	2E	.	.
2D	2F	.	.
=64	=64	=64	=64
2BB	2G	0r	0r
2C	2.A	.	.
1AA	.	.	.
.	4G	.	.
.	4E	.	.
.	4F	.	.
=65	=65	=65	=65
1GG	4G	1r	1r
.	4F	.	.
.	4E	.	.
.	4D	.	.
1r	1E	2r	1g
.	.	2e	.
=66	=66	=66	=66
0r	1D	2f	2a
.	.	2d	2b
.	1r	2.e	2.g
.	.	4f	4a
=67	=67	=67	=67
0r	0r	1d	2b
.	.	.	2.b
.	.	2.e	.
.	.	.	4g
.	.	.	[2g
.	.	4c	.
=68	=68	=68	=68
0r	0r	1c	2g]
.	.	.	1cc
.	.	1f	.
.	.	.	2a
=69	=69	=69	=69
0r	0r	2d	2a
.	.	2d	1b
.	.	1e	.
.	.	.	[2g
=70	=70	=70	=70
0r	0r	1c	2g]
.	.	.	2.a
.	.	1d	.
.	.	.	4g
.	.	.	4f
.	.	.	4e
=71	=71	=71	=71
0r	1r	2.B	2d
.	.	.	2e
.	.	4c	.
.	1F	1A	1f
=72	=72	=72	=72
2r	2C	1G	1e
2C	2C	.	.
2AA	2E	1r	1r
2BB	2D	.	.
=73	=73	=73	=73
2C	2E	0r	0r
2D	2F	.	.
1E	2G	.	.
.	[2c	.	.
=74	=74	=74	=74
1F	2c]	0r	0r
.	1A	.	.
1D	.	.	.
.	[2d	.	.
=75	=75	=75	=75
1E	4d]	0r	1r
.	4c	.	.
.	2.c	.	.
1D	.	.	1f
.	8BL	.	.
.	8AJ	.	.
.	2B	.	.
=76	=76	=76	=76
0C	1c	2G	2e
.	.	2G	2c
.	1r	1c	2.e
.	.	.	4f
=77	=77	=77	=77
1E	2r	2.B	1g
.	2G	.	.
.	.	4B	.
2C	2E	2c	1r
2D	2F	2A	.
=78	=78	=78	=78
2E	2G	2c	2r
2D	2A	1d	1d
1GG	1B	.	.
.	.	2B	[2g
=79	=79	=79	=79
1C	1c	1e	2g]
.	.	.	4f
.	.	.	4e
1D	1A	[1d	2f
.	.	.	[2a
=80	=80	=80	=80
1GG	1B	0d_	4a]
.	.	.	4g
.	.	.	2.g
1D	1A	.	.
.	.	.	8f#iL
.	.	.	8eJ
.	.	.	2f#i
=81	=81	=81	=81
0GG	0G	1d]	1g
.	.	1r	[1g
=82	=82	=82	=82
0C	1r	0e	1g]
.	[1c	.	1g
=83	=83	=83	=83
1C	1c]	1e	1g
1C	1c	1e	1e
=84	=84	=84	=84
1AA	1c	1e	1.a
[1D	1A	[1f	.
.	.	.	2a
=85	=85	=85	=85
2D]	1.d	2f]	2a
2D	.	2f	2a
2D	.	2f	1a
2D	2d	2f	.
=86	=86	=86	=86
1E	2B	0e	1g
.	2B	.	.
1AA	1c	.	1a
=87	=87	=87	=87
1AA	1A	1c	1cc
1GG	1d	1g	1b
=88	=88	=88	=88
2.D	1d	1f	2.a
8CL	.	.	4b
8BBJ	.	.	.
2AA	2c	2r	2cc
2GG	2B	2g	[2dd
=89	=89	=89	=89
2AA	1c	2e	4dd]
.	.	.	4cc
2A	.	2f	1cc
1G	1d	1g	.
.	.	.	2b
=90	=90	=90	=90
1C	2.c	1e	0cc
.	4B	.	.
1r	2A	2r	.
.	2F	2f	.
=91	=91	=91	=91
0r	1A	2e	2r
.	.	2f	2cc
.	1G	2g	2b
.	.	2e	2cc
=92	=92	=92	=92
0r	0r	2f	2dd
.	.	2d	2b
.	.	2c	2cc
.	.	2d	2a
=93	=93	=93	=93
0r	0r	4e	2g
.	.	4d	.
.	.	4c	1a
.	.	4B	.
.	.	2A	.
.	.	2B	[2g
=94	=94	=94	=94
0r	2r	2G	4g]
.	.	.	4f
.	2E	1c	2e
.	2F	.	1d
.	2G	2B	.
=95	=95	=95	=95
2r	1A	1c	1c
2AA	.	.	.
2BB	2G	1r	1r
2C	2E	.	.
=96	=96	=96	=96
1D	2F	0r	0r
.	2D	.	.
2C	1E	.	.
2AA	.	.	.
=97	=97	=97	=97
2BB	2r	0r	0r
2GG	2G	.	.
1AA	2E	.	.
.	2F	.	.
=98	=98	=98	=98
2r	2G	0r	0r
2C	2E	.	.
2AA	1F	.	.
2BB	.	.	.
=99	=99	=99	=99
2C	1E	0r	0r
2AA	.	.	.
1BB	2r	.	.
.	2D	.	.
=100	=100	=100	=100
1AA	2E	1r	0r
.	2.F	.	.
1D	.	2r	.
.	4G	.	.
.	[2A	[2d	.
=101	=101	=101	=101
1GG	4A]	2d]	0r
.	4G	.	.
.	1G	2d	.
1AA	.	2c	.
.	2F#i	2A	.
=102	=102	=102	=102
1GG	1G	1B	2r
.	.	.	1g
1r	1C	1c	.
.	.	.	2g
=103	=103	=103	=103
2r	0r	1d	2f
1G	.	.	2d
.	.	1r	1e
2G	.	.	.
=104	=104	=104	=104
2F	1r	2c	1f
2D	.	2d	.
1E	2r	2B	1g
.	[2c	2c	.
=105	=105	=105	=105
1F	2c]	1A	1a
.	2c	.	.
1G	2B	[1d	1g
.	2G	.	.
=106	=106	=106	=106
1D	1A	1d]	1f
1G	1B	1d	[1g
=107	=107	=107	=107
1E	1c	1e	1g]
1D	1d	1f	2f
.	.	.	[2a
=108	=108	=108	=108
2E	2B	1e	4a]
.	.	.	4g
2C	2c	.	1g
1D	1A	1d	.
.	.	.	2f#i
=109	=109	=109	=109
0GG	1G	0B	0g
.	1d	.	.
=110	=110	=110	=110
0G	1d	1r	0b
.	[1d	[1g	.
=111	=111	=111	=111
1G	1d]	1g]	1b
1C	1e	1g	1cc
=112	=112	=112	=112
1G	1.d	1g	1b
[1D	.	1f	[1dd
.	2d	.	.
=113	=113	=113	=113
2D]	2d	1.f	2dd]
2D	2B	.	2dd
2F	1A	.	2cc
2F	.	2f	2a
=114	=114	=114	=114
1E	1.G	2.g	1b
.	.	4g	.
[1C	.	1e	[1cc
.	2G	.	.
=115	=115	=115	=115
2C]	0G	2.e	2cc]
2GG	.	.	2b
.	.	4d	.
1GG	.	1d	1b
=116	=116	=116	=116
0r	1.E	1.e	1.g
.	2E	2e	2g
=117	=117	=117	=117
0r	2C	2e	2g
.	1C	1e	1g
.	2F	2A	2a
=118	=118	=118	=118
0r	2E	2B	2g
.	2E	2G	2g
.	2C	2.A	2e
.	2D	.	2f
.	.	4A	.
=119	=119	=119	=119
1.C	2E	1G	0g
.	1G	.	.
.	.	2.c	.
2C	2G	.	.
.	.	4c	.
=120	=120	=120	=120
2GG	2G	2d	0r
1GG	1G	1d	.
2D	2A	2d	.
=121	=121	=121	=121
2E	2G	2B	0r
2E	2G	2B	.
2C	2E	2c	.
2D	2F	2A	.
=122	=122	=122	=122
1GG	1G	1B	1r
1C	1G	1c	1g
=123	=123	=123	=123
1C	1c	1e	1g
1GG	1B	1d	1g
=124	=124	=124	=124
1.D	1.A	1.d	1.a
2GG	2B	2d	2g
=125	=125	=125	=125
1C	1G	1c	1g
[1C	[1G	[1c	[1e
=126	=126	=126	=126
2C]	2G]	2c]	2e]
2C	2A	2c	2e
1D	1F	1A	1f
=127	=127	=127	=127
0C	0G	1c	1e
.	.	2r	2r
.	.	2c	2g
=128	=128	=128	=128
0r	0r	2B	2g
.	.	2c	2g
.	.	2d	2f
.	.	2B	2d
=129	=129	=129	=129
0r	0r	2A	2f
.	.	2A	2e
.	.	1f	1a
=130	=130	=130	=130
2r	2r	1e	0g
2C	2G	.	.
2BB	2G	1r	.
2C	2G	.	.
=131	=131	=131	=131
2D	2F	0r	0r
2BB	2D	.	.
2AA	2F	.	.
2AA	2E	.	.
=132	=132	=132	=132
1F	1A	0r	0r
1E	1G	.	.
=133	=133	=133	=133
*M3/1	*M3/1	*M3/1	*M3/1
*met(3)	*met(3)	*met(3)	*met(3)
1C	1c	1e	1g
1C	1c	1e	1g
[1F	[1A	[1f	[1a
=134	=134	=134	=134
2F]	2A]	2f]	2a]
2G	2B	2d	2g
1C	1c	1e	1g
[1F	[1A	[1c	(1a
=135	=135	=135	=135
2F]	2A]	2c]	2a)
2E	2B	2e	2g
1C	1c	1e	1e
1D	1A	1d	1f
=136	=136	=136	=136
0GG	0G	0B	0g
1r	1r	1r	1r
=137	=137	=137	=137
1GG	1G	1d	1b
1GG	1G	1d	1b
[1C	[1E	[1e	[1cc
=138	=138	=138	=138
2C]	2E]	2e]	2cc]
2BB	2F	2d	2dd
1GG	1G	1d	1b
[1C	1G	[1e	[1g
=139	=139	=139	=139
2C]	1A	2e]	2g]
2D	.	2d	2f
1E	1G	1B	1g
1C	1E	1c	1a
=140	=140	=140	=140
00GG	00D	00d	00b
=141||	=141||	=141||	=141||
*M2/1	*M2/1	*M2/1	*M2/1
*met(C|)	*met(C|)	*met(C|)	*met(C|)
!!section: Secunda pars: Confiteantur tibi
!!!OMD: Secunda pars: Confiteantur tibi
0r	1r	1g	0r
.	1c	2e	.
.	.	2e	.
=142	=142	=142	=142
0r	2A	1f	0r
.	2A	.	.
.	1B	1g	.
=143	=143	=143	=143
1F	1c	1a	0r
2D	1d	1f	.
2D	.	.	.
=144	=144	=144	=144
1E	2B	2.g	0r
.	1c	.	.
.	.	4g	.
1F	.	1f	.
.	4B	.	.
.	4A	.	.
=145	=145	=145	=145
1G	1B	2r	0r
.	.	1e	.
1C	[1c	.	.
.	.	2e	.
=146	=146	=146	=146
1.F	2c]	1c	0r
.	2A	.	.
.	1A	[1f	.
2D	.	.	.
=147	=147	=147	=147
1D	2.d	2f]	0r
.	.	2f	.
.	4B	.	.
2.G	1B	2d	.
.	.	[2g	.
4E	.	.	.
=148	=148	=148	=148
2E	2.c	2g]	0r
2.F	.	2.a	.
.	4c	.	.
.	2.c	.	.
4F	.	4g	.
2F	.	4f	.
.	4A	4e	.
=149	=149	=149	=149
1G	1B	1d	0r
1D	1A	2r	.
.	.	[2d	.
=150	=150	=150	=150
2r	0G	2d]	0r
1E	.	2B	.
.	.	1c	.
2C	.	.	.
=151	=151	=151	=151
1D	1r	1A	0r
1E	2r	1G	.
.	[2c	.	.
=152	=152	=152	=152
1F	2c]	1r	0r
.	2A	.	.
2r	1B	2r	.
2G	.	2G	.
=153	=153	=153	=153
2F	1c	2A	0r
2E	.	2G	.
2D	1d	2A	.
[2G	.	(2B	.
=154	=154	=154	=154
2G]	2r	2B)	0r
2F	2d	2A	.
2G	2d	2B	.
2D	2d	2A	.
=155	=155	=155	=155
2.E	2.B	2G	0r
.	.	1g	.
4C	4c	.	.
1D	1A	.	.
.	.	2f#i	.
=156	=156	=156	=156
1r	0G	1g	0r
[1C	.	1r	.
=157	=157	=157	=157
2C]	1.c	1.e	0r
2AA	.	.	.
1AA	.	.	.
.	2A	2c	.
=158	=158	=158	=158
1D	2A	2c	0r
.	2A	2f	.
2D	2B	2f	.
2C	2c	2e	.
=159	=159	=159	=159
1F	1A	1c	0r
1D	1F	1f	.
=160	=160	=160	=160
1C	1G	1e	0r
2r	2.c	2r	.
[2F	.	[2f	.
.	4c	.	.
=161	=161	=161	=161
2F]	2c	2f]	0r
2F	2A	2c	.
2D	2B	2f	.
2E	2c	2e	.
=162	=162	=162	=162
2F	1A	2c	0r
2D	.	2d	.
1C	1r	1e	.
=163	=163	=163	=163
1D	1F	1A	0r
1C	1E	1c	.
=164	=164	=164	=164
*M3/1	*M3/1	*M3/1	*M3/1
*met(3)	*met(3)	*met(3)	*met(3)
0GG	0G	0.B	1%3r
1r	1r	.	.
=165	=165	=165	=165
1r	0G	1%3r	1%3r
0C	.	.	.
.	1E	.	.
=166	=166	=166	=166
1AA	1F	1%3r	1%3r
1BB	1.G	.	.
[1C	.	.	.
.	2A	.	.
=167	=167	=167	=167
2C]	1F	1r	1%3r
2D	.	.	.
1BB	1.G	1r	.
[1C	.	[1e	.
.	2E	.	.
=168	=168	=168	=168
2C]	1E	2e]	1%3r
2AA	.	2c	.
1AA	1.F	1c	.
[1BB	.	[1d	.
.	2D	.	.
=169	=169	=169	=169
2BB]	0D	2d]	1%3r
2GG	.	2B	.
0GG	.	0B	.
.	1r	.	.
=170	=170	=170	=170
1%3r	0F	1c	1%3r
.	.	1A	.
.	1D	1B	.
=171	=171	=171	=171
1%3r	1E	1c	1%3r
.	1F	1.d	.
.	[1G	.	.
.	.	2B	.
=172	=172	=172	=172
1r	2G]	0B	1%3r
.	2E	.	.
1r	1E	.	.
1C	1G	1e	.
=173	=173	=173	=173
1F	1A	1c	1%3r
1D	1F	1d	.
1C	1G	1e	.
=174	=174	=174	=174
0F	0A	0c	1%3r
1E	1B	1e	.
=175	=175	=175	=175
1C	1c	1e	1%3r
1D	1A	1d	.
1E	1G	1B	.
=176	=176	=176	=176
1C	1E	1c	1%3r
1D	1F	1A	.
1BB	1D	1B	.
=177	=177	=177	=177
1C	1E	2A	1%3r
.	.	1G	.
0AA	0C	.	.
.	.	4F#i	.
.	.	4E	.
.	.	1F#i	.
=178	=178	=178	=178
*M2/1	*M2/1	*M2/1	*M2/1
*met(C|)	*met(C|)	*met(C|)	*met(C|)
0GG	1D	0G	0r
.	2r	.	.
.	[2G	.	.
=179	=179	=179	=179
2r	2G]	0r	0r
1C	2G	.	.
.	1A	.	.
2D	.	.	.
=180	=180	=180	=180
1E	1.G	0r	0r
1C	.	.	.
.	[2c	.	.
=181	=181	=181	=181
1F	2c]	0r	0r
.	1A	.	.
1D	.	.	.
.	[2B	.	.
=182	=182	=182	=182
1.E	2B]	0r	0r
.	2B	.	.
.	2B	.	.
2E	[2c	.	.
=183	=183	=183	=183
2.F	2c]	0r	0r
.	2d	.	.
4G	.	.	.
2A	2c	.	.
2G	[2B	.	.
=184	=184	=184	=184
2E	4B]	0r	0r
.	4A	.	.
2F	1A	.	.
1D	.	.	.
.	4G	.	.
.	4F	.	.
=185	=185	=185	=185
1.C	0E	0r	0r
4BB	.	.	.
4AA	.	.	.
=186	=186	=186	=186
2GG	1G	2r	0r
2C	.	2e	.
2.C	2.G	2.e	.
4C	4G	4e	.
=187	=187	=187	=187
2D	2F	2f	0r
2E	2G	2e	.
2F	2A	2c	.
2D	2B	2d	.
=188	=188	=188	=188
1C	1c	1e	0r
1C	1c	1e	.
=189	=189	=189	=189
1BB-X	1d	1f	0r
1C	1c	1e	.
=190	=190	=190	=190
1G	1d	0r	0r
2E	2c	.	.
2F	2A	.	.
=191	=191	=191	=191
2G	2B	1g	0r
2E	2c	.	.
1D	1d	2f	.
.	.	2d	.
=192	=192	=192	=192
1r	1A	2e	0r
.	.	2f	.
1G	[1d	2g	.
.	.	2g	.
=193	=193	=193	=193
2D	2d]	2f	0r
2D	2d	2a	.
2E	2B	2g	.
2C	2c	2e	.
=194	=194	=194	=194
1D	1A	1f	0r
1GG	1B	[1g	.
=195	=195	=195	=195
0C	[0G	1g]	0r
.	.	1r	.
=196	=196	=196	=196
1C	1G]	0e	0r
1AA	1A	.	.
=197	=197	=197	=197
1.C	1E	1e	0r
.	[1G	1c	.
2C	.	.	.
=198	=198	=198	=198
[0GG	2G]	1.d	0r
.	2D	.	.
.	[1D	.	.
.	.	2B	.
=199	=199	=199	=199
0GG]	1D]	1B	0r
.	2r	2r	.
.	2G	2B	.
=200	=200	=200	=200
0r	2.G	2.B	0r
.	4E	4G	.
.	2F	2A	.
.	2A	2c	.
=201	=201	=201	=201
2r	2F	2A	0r
2G	2G	2B	.
2.G	1C	[1c	.
4E	.	.	.
=202	=202	=202	=202
2F	0r	2c]	0r
2A	.	2c	.
2F	.	2.d	.
2G	.	.	.
.	.	4B	.
=203	=203	=203	=203
1C	2r	2c	0r
.	1c	2e	.
1r	.	2c	.
.	2B	2d	.
=204	=204	=204	=204
0C	0c	1G	0r
.	.	1g	.
=205	=205	=205	=205
0F	0A	0f	0r
=206	=206	=206	=206
1C	1G	1e	0r
1F	1A	1f	.
=207	=207	=207	=207
1.BB-X	1.B-X	1.f	0r
2BB-i	2B-i	2f	.
=208	=208	=208	=208
1C	1G	1e	0r
1GG	1B	1g	.
=209	=209	=209	=209
1.D	2.A	1.f	0r
.	4G	.	.
.	2A	.	.
2BB	2B	2d	.
=210	=210	=210	=210
1C	2A	1e	0r
.	1G	.	.
1D	.	1d	.
.	2F	.	.
=211	=211	=211	=211
1GG	1G	[0B	0r
1r	1d	.	.
=212	=212	=212	=212
1G	1d	0B]	0r
1G	1e	.	.
=213	=213	=213	=213
1A	1.c	0r	0r
[1F	.	.	.
.	2A	.	.
=214	=214	=214	=214
2F]	1A	1.d	0r
2D	.	.	.
1D	1B	.	.
.	.	2d	.
=215	=215	=215	=215
1C	1c	1e	0r
1F	1r	[1c	.
=216	=216	=216	=216
1C	1c	2c]	0r
.	.	2A	.
[1D	[1A	1A	.
=217	=217	=217	=217
2D]	2A]	1d	0r
2D	2A	.	.
1GG	1B	1d	.
=218	=218	=218	=218
2r	2r	2r	0r
2G	2B	2d	.
2.G	2.B	2.d	.
4E	4G	4e	.
=219	=219	=219	=219
2F	1A	2c	0r
2D	.	2d	.
1E	1G	2.B	.
.	.	4G	.
=220	=220	=220	=220
1F	2A	1c	0r
.	1c	.	.
1D	.	1d	.
.	2B	.	.
=221	=221	=221	=221
1C	2.c	2.e	0r
.	4d	4f	.
1r	2e	2g	.
.	[2d	[2a	.
=222	=222	=222	=222
0r	4d]	4a]	0r
.	4B	4g	.
.	2c	2.g	.
.	1A	.	.
.	.	8f#iL	.
.	.	8eJ	.
.	.	2f#i	.
=223	=223	=223	=223
*M3/1	*M3/1	*M3/1	*M3/1
*met(3)	*met(3)	*met(3)	*met(3)
1.C	0G	0g	1%3r
2D	.	.	.
1E	1r	1r	.
=224	=224	=224	=224
0F	1.A	1.c	1%3r
.	2B	2d	.
1E	1c	1e	.
=225	=225	=225	=225
0D	0d	0f	1%3r
1r	1c	1e	.
=226	=226	=226	=226
1G	1B	1d	1%3r
1E	1c	1r	.
1F	1A	1r	.
=227	=227	=227	=227
1G	1B	1g	1%3r
1C	1c	1e	.
1D	1r	1f	.
=228	=228	=228	=228
1E	1G	1g	1%3r
1r	1A	1c	.
1r	1B	1d	.
=229	=229	=229	=229
0C	0c	1e	1%3r
.	.	1e	.
1C	1c	1e	.
=230	=230	=230	=230
1C	1G	1c	1%3r
1F	1A	1d	.
1E	1B	1e	.
=231	=231	=231	=231
1C	1c	1e	1%3r
0D	0A	1.f	.
.	.	2d	.
=232	=232	=232	=232
0GG	0B	0d	1%3r
1r	1r	1r	.
=233	=233	=233	=233
1C	1G	1c	1%3r
1.C	1.G	1.c	.
2C	2G	2c	.
=234	=234	=234	=234
0D	0F	1A	1%3r
.	.	0B	.
1BB	1D	.	.
=235	=235	=235	=235
1C	1E	1G	1%3r
0AA	0C	0c	.
=236	=236	=236	=236
00GG	00G	00B	00r
=237||	=237||	=237||	=237||
*M2/1	*M2/1	*M2/1	*M2/1
*met(C|)	*met(C|)	*met(C|)	*met(C|)
!!section: Tertia pars: Aperis tu manum tuam
!!!OMD: Tertia pars: Aperis tu manum tuam
0r	0r	1r	1.g
.	.	[1c	.
.	.	.	2g
=238	=238	=238	=238
0r	0r	2c]	1a
.	.	2c	.
.	.	1d	1b
=239	=239	=239	=239
0r	0r	1e	1g
.	.	1c	[1cc
=240	=240	=240	=240
0r	0r	1.f	2cc]
.	.	.	2a
.	.	.	1a
.	.	2d	.
=241	=241	=241	=241
0r	0r	1d	1dd
.	.	1g	2b
.	.	.	2g
=242	=242	=242	=242
0r	0r	2e	1cc
.	.	2c	.
.	.	1f	1a
=243	=243	=243	=243
0r	0r	2d	2.dd
.	.	2.g	.
.	.	.	4b
.	.	.	2b
.	.	4e	.
.	.	2e	[2cc
=244	=244	=244	=244
0r	0r	1f	2cc]
.	.	.	2a
.	.	2d	2b
.	.	2e	2cc
=245	=245	=245	=245
0r	1r	1f	1a
.	[1G	1d	1g
=246	=246	=246	=246
2C	2G]	0c	0r
2C	2G	.	.
2.F	2.A	.	.
4E	4B	.	.
=247	=247	=247	=247
2C	2c	0r	0r
2G	2B	.	.
2E	2c	.	.
2F	2d	.	.
=248	=248	=248	=248
2G	2B	0r	0r
2E	2c	.	.
2F	2A	.	.
2E	2G	.	.
=249	=249	=249	=249
1C	1c	2r	2r
.	.	2e	2g
1r	1r	2g	2e
.	.	2d	2f
=250	=250	=250	=250
0r	0r	2e	2g
.	.	2g	2e
.	.	2d	2f
.	.	2f	2d
=251	=251	=251	=251
1C	1G	1e	1c
1F	1A	1r	1r
=252	=252	=252	=252
1C	1G	1c	1e
1r	1r	1d	1f
=253	=253	=253	=253
0C	0G	1c	1e
.	.	1c	1g
=254	=254	=254	=254
0F	0A	0c	0f
=255	=255	=255	=255
1C	1G	1c	1e
1C	1G	1c	1e
=256	=256	=256	=256
1.E	1.G	1.B	1.g
2AA	2F	2A	2a
=257	=257	=257	=257
1AA	1E	1A	1a
1C	1E	1e	1g
=258	=258	=258	=258
1.D	1.A	1.d	1.f
2E	2G	2B	2g
=259	=259	=259	=259
1C	1c	1e	2a
.	.	.	2.g
1D	1A	1d	.
.	.	.	8f#iL
.	.	.	8eJ
.	.	.	2f#i
=260	=260	=260	=260
0GG	0G	0B	[0g
=261	=261	=261	=261
0r	0r	2r	1g]
.	.	2c	.
.	.	2d	2r
.	.	2e	2g
=262	=262	=262	=262
0r	0r	2.f	2a
.	.	.	2b
.	.	4d	.
.	.	1c	2.cc
.	.	.	4a
=263	=263	=263	=263
0r	0r	1.e	1g
.	.	.	[1b
.	.	2e	.
=264	=264	=264	=264
0r	0r	1g	2b]
.	.	.	2b
.	.	2.d	1dd
.	.	4d	.
=265	=265	=265	=265
0r	0r	2.f	2.a
.	.	4e	4b
.	.	4c	2.cc
.	.	4d	.
.	.	4e	.
.	.	4f	4b
=266	=266	=266	=266
0r	0r	1g	4g
.	.	.	4a
.	.	.	4b
.	.	.	4cc
.	.	2f	2dd
.	.	2e	[2cc
=267	=267	=267	=267
1r	1.G	1d	4cc]
.	.	.	8bL
.	.	.	8aJ
.	.	.	2b
[1C	.	1c	1cc
.	2G	.	.
=268	=268	=268	=268
2C]	1G	1.e	0r
2C	.	.	.
1C	[1c	.	.
.	.	2e	.
=269	=269	=269	=269
1.F	2c]	1f	0r
.	2c	.	.
.	2.c	[1f	.
2F	.	.	.
.	4c	.	.
=270	=270	=270	=270
2.F	1A	2f]	0r
.	.	2f	.
4F	.	.	.
2D	1B-X	2f	.
[2E	.	2g	.
=271	=271	=271	=271
2E]	1G	2g	0r
1C	.	1e	.
.	1A	.	.
2D	.	[2d	.
=272	=272	=272	=272
2BB	2G	2d]	0r
2C	2E	1c	.
1AA	1F	.	.
.	.	4B	.
.	.	4A	.
=273	=273	=273	=273
1GG	1G	1B	2r
.	.	.	2g
1r	1r	2c	2e
.	.	2d	2f
=274	=274	=274	=274
1G	1B	2G	1d
.	.	1g	.
2E	2G	.	1c
2F	2A	[2f	.
=275	=275	=275	=275
1D	1F	2f]	1r
.	.	4e	.
.	.	4d	.
[1C	1G	1e	1g
=276	=276	=276	=276
1C]	1r	1r	2g
.	.	.	2a
[1C	1G	1e	1g
=277	=277	=277	=277
2C]	2G	1e	1cc
2AA	2A	.	.
2E	1G	1e	2b
[2G	.	.	2g
=278	=278	=278	=278
2G]	1c	2e	1a
2F	.	2f	.
2G	2B	2d	1g
2E	2G	2e	.
=279	=279	=279	=279
2C	1A	2e	2e
2D	.	1d	2f
2BB	1G	.	1g
2GG	.	[2e	.
=280	=280	=280	=280
1AA	2E	4e]	1r
.	.	4d	.
.	2F	2c	.
1GG	1G	1B	2r
.	.	.	2g
=281	=281	=281	=281
0r	0r	2c	2g
.	.	2c	2e
.	.	2A	2f
.	.	2B	2g
=282	=282	=282	=282
0r	0r	2c	1a
.	.	2d	.
.	.	2B	2g
.	.	2c	2e
=283	=283	=283	=283
0r	0r	1d	1f
.	.	2c	2e
.	.	2e	2c
=284	=284	=284	=284
0r	0r	2.f	2.d
.	.	4f	4d
.	.	1e	1c
=285	=285	=285	=285
3%4GG	3%4B	3%4d	3%4g
3%2GG	3%2B	3%2d	3%2g
=286	=286	=286	=286
3%2D	3%2A	3%2f	3%2a
3%2.GG	3%2.d	3%2.g	3%2.b
3D	3d	3f	3a
=287	=287	=287	=287
3%2E	3%2B	3%4e	3%4g
3%2C	3%2c	.	.
3%2D	3%2A	3%2d	3%2f
=288	=288	=288	=288
1GG	0G	1d	1g
1G	.	1d	1b
=289	=289	=289	=289
1G	1d	1g	1b
1G	2d	1g	1b
.	2d	.	.
=290	=290	=290	=290
1.C	1.e	1.g	1.cc
2GG	2d	2g	2b
=291	=291	=291	=291
2GG	1d	0g	0b
2G	.	.	.
2G	2r	.	.
2G	2d	.	.
=292	=292	=292	=292
2F	2d	2r	0r
2D	2d	2a	.
1F	2c	2a	.
.	2A	2a	.
=293	=293	=293	=293
0C	2.c	2g	2r
.	.	2e	2g
.	8BL	.	.
.	8AJ	.	.
.	1G	2.g	2g
.	.	.	2g
.	.	8fL	.
.	.	8eJ	.
=294	=294	=294	=294
1r	2r	1d	2f
.	2G	.	2d
2r	2D	1r	2.f
2D	2F	.	.
.	.	.	8eL
.	.	.	8dJ
=295	=295	=295	=295
2AA	2E	1e	1c
2C	2.A	.	.
2BB	.	1d	1r
.	4G	.	.
2GG	[2G	.	.
=296	=296	=296	=296
1AA	2G]	1c	1cc
.	2F	.	.
2GG	[1B-i	1d	1b
[2G	.	.	.
=297	=297	=297	=297
2G]	2B-]	1e	1g
2E	2G	.	.
1F	1A	1c	1cc
=298	=298	=298	=298
1C	1G	1e	2cc
.	.	.	2cc
1r	1r	1d	2b
.	.	.	[2a
=299	=299	=299	=299
1r	1r	2.c	4a]
.	.	.	4g
.	.	.	4a
.	.	4B	4g
1D	1d	4A	4f
.	.	4G	4e
.	.	2A	2f
=300	=300	=300	=300
2E	2B	0G	0g
2E	2B	.	.
1C	2c	.	.
.	[2A	.	.
=301	=301	=301	=301
1F	2A]	0r	0r
.	2c	.	.
1D	[1d	.	.
=302	=302	=302	=302
1.G	2d]	0r	0r
.	2c	.	.
.	2B	.	.
2F	2A	.	.
=303	=303	=303	=303
1E	2G	1r	0r
.	1c	.	.
1D	.	1d	.
.	2B	.	.
=304	=304	=304	=304
1C	1c	2e	1g
.	.	2e	.
1r	1r	1f	2a
.	.	.	2a
=305	=305	=305	=305
0r	0r	1d	1b
.	.	1f	1a
=306	=306	=306	=306
0r	0r	2e	1cc
.	.	2f	.
.	.	2g	2b
.	.	4f	2cc
.	.	4e	.
=307	=307	=307	=307
0r	0r	1d	2.dd
.	.	.	8ccL
.	.	.	8bJ
.	.	2.f	1a
.	.	4f	.
=308	=308	=308	=308
0r	0r	2f	2.cc
.	.	2f	.
.	.	.	4cc
.	.	2f	2cc
.	.	4e	2cc
.	.	4d	.
=309	=309	=309	=309
0r	0r	1c	2cc
.	.	.	4b
.	.	.	4a
.	.	1e	1g
=310	=310	=310	=310
0r	0r	1.d	1b
.	.	.	[1a
.	.	2c	.
=311	=311	=311	=311
0r	1r	2d	2a]
.	.	2B	2g
.	[1c	1A	2a
.	.	.	2f
=312	=312	=312	=312
1.C	2c]	1.G	1e
.	2c	.	.
.	2c	.	2e
2C	2c	2G	2e
=313	=313	=313	=313
2C	0c	2G	2.e
2C	.	2G	.
.	.	.	4e
1F	.	1A	2f
.	.	.	[2a
=314	=314	=314	=314
1.G	1.B	1.d	2a]
.	.	.	1g
2D	2A	2d	2f#i
=315	=315	=315	=315
1E	1G	1B	[0g
[1C	[1G	[1e	.
=316	=316	=316	=316
2C]	2G]	2e]	0g]
2C	2G	2e	.
1C	1G	1e	.
=317	=317	=317	=317
1F	1A	1c	0r
2E	2G	2c	.
2E	2G	2B	.
=318	=318	=318	=318
2C	2E	2c	1r
2D	2F	2A	.
[1GG	[1G	2B	[1g
.	.	[2d	.
=319	=319	=319	=319
1GG]	1G]	2d]	2g]
.	.	2d	2g
1r	1r	2B	2g
.	.	2c	2e
=320	=320	=320	=320
0r	0r	1A	1f
.	.	1B	1d
=321	=321	=321	=321
3%2C	3%2G	3%4c	3%4c
3%2C	3%2A	.	.
3%2D	3%2B	3%2r	3%2r
=322	=322	=322	=322
3%4C	3%4c	3%2G	3%2g
.	.	3%2G	3%2e
3%2r	3%2r	3%2A	3%2f
=323	=323	=323	=323
3%4C	3%4c	3%4G	3%4g
[3%2E	[3%2G	3%2r	3%2r
=324	=324	=324	=324
3%2E]	3%2G]	0r	0r
3%2F	3%2A	.	.
3%2D	3%2B	.	.
=325	=325	=325	=325
3%4C	3%4c	3%4G	3%4g
3%2r	3%2r	[3%2B	3%2d
=326	=326	=326	=326
0r	0r	3%2B]	3%2d
.	.	3%2c	3%2e
.	.	3%2A	3%2f
=327	=327	=327	=327
3%4C	3%4c	3%4G	3%4g
[3%2GG	[3%2d	3%2g	3%2b
=328	=328	=328	=328
3%2GG]	3%2d]	3%2g	3%2b
3%2.D	3%2.d	3%2.f	3%2.a
3E	3B	3e	3g
=329	=329	=329	=329
3%2C	3%2c	3%2e	3%4g
3%4D	3%4A	3%4d	.
.	.	.	3%2f#i
=330	=330	=330	=330
1GG	0G	1B	0g
[1C	.	[1e	.
=331	=331	=331	=331
2C]	1.c	2e]	1.g
2C	.	2e	.
2C	.	2e	.
2C	2c	2e	2g
=332	=332	=332	=332
0C	2c	0e	2g
.	2c	.	2g
.	1c	.	1g
=333	=333	=333	=333
1D	2A	0r	0r
.	2B	.	.
2AA	2.c	.	.
[2C	.	.	.
.	4B	.	.
=334	=334	=334	=334
2C]	2A	1r	1r
2BB	1G	.	.
1AA	.	1A	2r
.	2F#i	.	2a
=335	=335	=335	=335
1GG	1G	1d	2b
.	.	.	2g
1r	1r	2A	2.cc
.	.	[2c	.
.	.	.	4b
=336	=336	=336	=336
0r	0r	2c]	2a
.	.	2B	1g
.	.	1A	.
.	.	.	2f#i
=337	=337	=337	=337
3%4G	3%4B	3%2G	3%2g
.	.	3%2d	3%2g
3%2F	3%2A	3%2d	3%2a
=338	=338	=338	=338
3%2E	3%2B	3%2e	3%2g
3%2C	3%2c	3%2e	3%2g
3%2D	3%2A	3%2d	3%2f#i
=339	=339	=339	=339
3%4E	3%4G	3%4B	[0gl
3%2BB	3%2G	3%2d	.
=340	=340	=340	=340
3%2C	3%2G	3%2e	0g_
3%2BB	3%2D	3%2d	.
3%2GG	3%2D	3%2B	.
=341	=341	=341	=341
0C	0E	0c	0g_
=342	=342	=342	=342
00GGl	00Dl	00dl	00g]
==	==	==	==
*-	*-	*-	*-
!!!system-decoration: [*]
!!!RDF**kern: i = editorial accidental
!!!RDF**kern: l = terminal long
!!!ENC: Benjamin Ory
!!!END: 2024/6/4
!!!EED: Benjamin Ory
!!!EEV: 2024/06/04
!!!YEC: Copyright 2024 Benjamin Ory, All Rights Reserved
!!!ONB: Translated from MusicXML on 2024/06/04